findly-builder/apps/searchassist/src/assets/icons/search-list.svg

<svg width="15" height="14" viewBox="0 0 15 14" fill="none" xmlns="http://www.w3.org/2000/svg">
<path d="M1.5 0C0.677469 0 0 0.677469 0 1.5V9.5C0 10.3225 0.677469 11 1.5 11H7V10H1.5C1.21853 10 1 9.78147 1 9.5V3H13V5H14V1.5C14 0.677469 13.3225 0 12.5 0H1.5ZM1.5 1H12.5C12.7815 1 13 1.21853 13 1.5V2H1V1.5C1 1.21853 1.21853 1 1.5 1ZM3 5V6H4V5H3ZM5 5V6H10V5H5ZM12 6C10.3491 6 9 7.34907 9 9C9 9.64593 9.21025 10.2416 9.56055 10.7324L7.02148 13.2715L7.72852 13.9785L10.2676 11.4395C10.7584 11.7898 11.3541 12 12 12C13.6509 12 15 10.6509 15 9C15 7.34907 13.6509 6 12 6ZM3 7V8H4V7H3ZM5 7V8H8V7H5ZM12 7C13.1105 7 14 7.88951 14 9C14 10.1105 13.1105 11 12 11C10.8895 11 10 10.1105 10 9C10 7.88951 10.8895 7 12 7Z" fill="black"/>
</svg>

<svg width="15" height="14" fill="none" xmlns="http://www.w3.org/2000/svg"><path d="M1.5 0C.677 0 0 .677 0 1.5v8c0 .822.677 1.5 1.5 1.5H7v-1H1.5a.493.493 0 0 1-.5-.5V3h12v2h1V1.5c0-.823-.678-1.5-1.5-1.5h-11Zm0 1h11c.281 0 .5.219.5.5V2H1v-.5c0-.281.219-.5.5-.5ZM3 5v1h1V5H3Zm2 0v1h5V5H5Zm7 1c-1.65 0-3 1.35-3 3 0 .646.21 1.242.56 1.732l-2.539 2.54.708.707 2.539-2.54A2.97 2.97 0 0 0 12 12c1.65 0 3-1.35 3-3s-1.35-3-3-3ZM3 7v1h1V7H3Zm2 0v1h3V7H5Zm7 0c1.11 0 2 .89 2 2 0 1.11-.89 2-2 2-1.11 0-2-.89-2-2 0-1.11.89-2 2-2Z" fill="#000"/></svg>
